X:1
T:Sleeping on a Door-Step -- Jig
R:jig
C:CONN. REGAN.
B:Ryan's Mammoth Collection
Z:Contributed by Ray Davies, ray:davies99.freeserve.co.uk
M:6/8
L:1/8
K:G
uD"^Segno"|vG"4"AG GBd|gfe dBG|cd"4"e dfg|abg fed|\
G"4"AG GBd|gfe dBG|cd"4"e dgB|dcA G2H::
uB|vBcB Bef|gf"0"e "4"e^d"4"e|fkcB fkcB|g"4"e^d "4"eBG|\
BcB Bef|gf"0"e "4"e^d"4"e|\
fgf (Bgf)|1 eBG E2:|2 edc AFD"_D.S.""^Segno"[|]|]
